X:1
T:148 - Hora Bendita
T:Letra: William W. Walford (1772-1850)
T:Trad.: Theodoro Rodrigues Teixeira (1871-1950)
T:Música: William Batchelder Bradbury (1816-1868)
M:6/8
L:1/8
Q:1/4=90
K:Dmaj
V:1
D| "D"F2G A2A| "G"B2c d2B| "D"A2F (FE)D| "A"E2F E2D| "D"F2G A2A| "G"B2c d2B| "D"A2F (FE)D| "D/A"F2"A7"E "D"DzA| "D"d2c d2"(G)"B| "(D)"A2F A2A| d2c d2"(G)"B|"(D)"A2F "A"E2D| "D"F2G A2A| "G"B2c d2B| "D"A2F (FE)D| "A"E2F E2D| "D"F2G A2A| "G"B2c d2B| "D"A2F F2D|"D/A"F2"A7"E "D"D2 |]
w: 1.~Ben-di-taa ho-ra deo-ra-ção, Pois traz-nos paz_ ao co-ra-ção, E so-bre-pu-ja to-daa dor, Tra-zen-doau-xí_lio do Se-nhor. Em tem-pos de per-tur-ba-ção, Na dor mai-or, na ten-ta-ção, Pro-cu-ra-rei com mais fer-vor A co-mu-nhão_ com o Se-nhor. Pro-cu-ra-rei com mais fer-vor A co-mu-nhão com o Se-nhor. 
w: 2.~Ben-di-taa ho-ra deo-ra-ção, Pro-du-to só_ da de-vo-ção, Quee-le-vaao céu o seu o-dor Em do-ce chei_roa meu Se-nhor. E, fin-daa ho-ra dea-fli-ção, Os di-as maus, a ten-ta-ção, En-tão da-rei me-lhor lou-vor A meu Je-sus,_ a meu Se-nhor En-tão da-rei me-lhor lou-vor A meu Je-sus, a meu Se-nhor.
w: 3.~Ben-di-taa ho-ra deo-ra-ção, Pois li-ga-nos_ em co-mu-nhão E traz-nos fé e mais a-mor, En-chen-doo mun_do de dul-çor. De-se-joa vi-daa-qui fin-dar Com fé, a-mor, cons-tan-teo-rar; De-pois da mor-te, do pa-vor, En-tão se-rá,_ sim, só lou-vor De-pois da mor-te, do pa-vor, En-tão se-rá, sim, só lou-vor.
W: 
W: 
W: 1. Bendita a hora de oração,
W: Pois traz-nos paz ao coração,
W: E sobrepuja toda a dor,
W: Trazendo auxílio do Senhor.
W: Em tempos de perturbação,
W: Na dor maior, na tentação,
W: Procurarei com mais fervor
W: A comunhão com o Senhor.
W: Procurarei com mais fervor
W: A comunhão com o Senhor.
W: 
W: 2. Bendita a hora de oração,
W: Produto só da devoção,
W: Que eleva ao céu o seu odor
W: Em doce cheiro a meu Senhor.
W: E, finda a hora de aflição,
W: Os dias maus, a tentação,
W: Então darei melhor louvor
W: A meu Jesus, a meu Senhor
W: Então darei melhor louvor
W: A meu Jesus, a meu Senhor
W: 
W: 
W: 
W: 3. Bendita a hora de oração,
W: Pois liga-nos em comunhão
W: E traz-nos fé e mais amor,
W: Enchendo o mundo de dulçor.
W: Desejo a vida aqui findar
W: Com fé, amor, constante orar;
W: Depois da morte, do pavor,
W: Então será, sim, só louvor.
W: Depois da morte, do pavor,
W: Então será, sim, só louvor.
W: 
W: 





